**kern
*staff1
!!pagebreak:original
*I"P1
*clefG2
*k[b-e-a-]
*M3/4
8b-\L
8aa-\J
=1
2gg\
8b-\L
8ff\J
=2
2ee-\
8a-\L
8dd\J
=3
[2.cc\
=4
8cc/L]
8b-/
8g/
8e-/
8g/
8dd/J
=5
[2.cc\
=6
8cc/L]
8b-/
8a-/
8f/
8a-/
8dd/J
=7
[2.cc\
=8
4cc\]
=
*-
